images/svg/star.svg

<svg width="55" height="55" viewBox="0 0 55 55" fill="none" xmlns="http://www.w3.org/2000/svg">
<path d="M27 6L35.1461 18.2475L49 22.4251L40.1811 34.1715L40.5955 49L27 44.0123L13.4045 49L13.8189 34.1715L5 22.4251L18.8539 18.2475L27 6ZM27 13.0201L21.2595 21.6526L11.4961 24.5941L17.7127 32.87L17.4178 43.319L27 39.805L36.5803 43.319L36.2873 32.87L42.502 24.5941L32.7405 21.6526L27 13.0201Z" fill="black"/>
<path d="M24.2739 31.5809C23.5509 30.838 23.1447 29.8303 23.1447 28.7796H19.2895C19.2895 30.881 20.1019 32.8964 21.5479 34.3823C22.9939 35.8682 24.955 36.703 27 36.703C29.045 36.703 31.0062 35.8682 32.4522 34.3823C33.8982 32.8964 34.7105 30.881 34.7105 28.7796H30.8553C30.8553 29.8303 30.4491 30.838 29.7261 31.5809C29.0031 32.3239 28.0225 32.7413 27 32.7413C25.9775 32.7413 24.9969 32.3239 24.2739 31.5809Z" fill="#A88768"/>
</svg>

<svg width="55" height="55" fill="none" xmlns="http://www.w3.org/2000/svg"><path d="m27 6 8.146 12.247L49 22.425l-8.819 11.747L40.596 49 27 44.012 13.405 49l.414-14.828L5 22.425l13.854-4.178L27 6Zm0 7.02-5.74 8.633-9.764 2.941 6.217 8.276-.295 10.449L27 39.805l9.58 3.514-.293-10.449 6.215-8.276-9.762-2.941L27 13.02Z" fill="#000"/><path d="M24.274 31.58a4.018 4.018 0 0 1-1.13-2.8H19.29c0 2.101.812 4.116 2.258 5.602A7.607 7.607 0 0 0 27 36.703a7.607 7.607 0 0 0 5.452-2.32 8.036 8.036 0 0 0 2.259-5.603h-3.856c0 1.05-.406 2.058-1.129 2.8A3.803 3.803 0 0 1 27 32.742a3.803 3.803 0 0 1-2.726-1.16Z" fill="#A88768"/></svg>
